**harm	**harte	**timestamp	**phrase	**leadinstrument	**kern
*M4/4	*M4/4	*	*	*	*
*G:	*G:	*	*	*	*G:
1r;	N	0	.	r	1r;
1r;	N	0.116	.	r	1r;
1r;	N	2.746	.	r	1r;
=1	=1	=1	=1	=1	=1
*>B_verse	*>B_verse	*>B_verse	*>B_verse	*>B_verse	*>B_verse
1I	G:maj	5.375	newline	voice	1G 1b 1dd
=2	=2	=2	=2	=2	=2
1I	G:maj	7.951	.	voice	1G 1b 1dd
=3	=3	=3	=3	=3	=3
1I	G:maj	10.526	.	voice	1G 1b 1dd
=4	=4	=4	=4	=4	=4
1I	G:maj	13.102	.	voice	1G 1b 1dd
=5	=5	=5	=5	=5	=5
1I	G:maj	15.677	newline	voice	1G 1b 1dd
=6	=6	=6	=6	=6	=6
1I	G:maj	18.243	.	voice	1G 1b 1dd
=7	=7	=7	=7	=7	=7
1ii	A:min	20.808	.	voice	1A 1cc 1ee
=8	=8	=8	=8	=8	=8
1V	D:maj	23.373	.	voice	1D 1f# 1a
=9	=9	=9	=9	=9	=9
1ii	A:min	25.938	newline	voice	1A 1cc 1ee
=10	=10	=10	=10	=10	=10
1V	D:maj	28.522	.	voice	1D 1f# 1a
=11	=11	=11	=11	=11	=11
1ii	A:min	31.105	.	voice	1A 1cc 1ee
=12	=12	=12	=12	=12	=12
1V	D:maj	33.688	.	voice	1D 1f# 1a
=13	=13	=13	=13	=13	=13
1ii	A:min	36.271	newline	voice	1A 1cc 1ee
=14	=14	=14	=14	=14	=14
1V	D:maj	38.855	.	voice	1D 1f# 1a
=15	=15	=15	=15	=15	=15
1I	G:maj	41.439	.	voice	1G 1b 1dd
=16	=16	=16	=16	=16	=16
1I	G:maj	44.022	.	voice	1G 1b 1dd
=17	=17	=17	=17	=17	=17
*>B_verse	*>B_verse	*>B_verse	*>B_verse	*>B_verse	*>B_verse
1I	G:maj	46.606	newline	voice	1G 1b 1dd
=18	=18	=18	=18	=18	=18
1I	G:maj	49.192	.	voice	1G 1b 1dd
=19	=19	=19	=19	=19	=19
1I	G:maj	51.778	.	voice	1G 1b 1dd
=20	=20	=20	=20	=20	=20
1I	G:maj	54.364	.	voice	1G 1b 1dd
=21	=21	=21	=21	=21	=21
1I	G:maj	56.95	newline	voice	1G 1b 1dd
=22	=22	=22	=22	=22	=22
1I	G:maj	59.518	.	voice	1G 1b 1dd
=23	=23	=23	=23	=23	=23
1ii	A:min	62.086	.	voice	1A 1cc 1ee
=24	=24	=24	=24	=24	=24
1V	D:maj	64.654	.	voice	1D 1f# 1a
=25	=25	=25	=25	=25	=25
1ii	A:min	67.223	newline	voice	1A 1cc 1ee
=26	=26	=26	=26	=26	=26
1V	D:maj	69.796	.	voice	1D 1f# 1a
=27	=27	=27	=27	=27	=27
1ii	A:min	72.369	.	voice	1A 1cc 1ee
=28	=28	=28	=28	=28	=28
1V	D:maj	74.942	.	voice	1D 1f# 1a
=29	=29	=29	=29	=29	=29
1ii	A:min	77.515	newline	voice	1A 1cc 1ee
=30	=30	=30	=30	=30	=30
1V	D:maj	80.121	.	voice	1D 1f# 1a
=31	=31	=31	=31	=31	=31
1I	G:maj	82.726	.	voice	1G 1b 1dd
=32	=32	=32	=32	=32	=32
1I	G:maj	85.332	.	voice	1G 1b 1dd
=33	=33	=33	=33	=33	=33
*>C_chorus	*>C_chorus	*>C_chorus	*>C_chorus	*>C_chorus	*>C_chorus
1vi	E:min	87.937	newline	voice	1E 1g 1b
=34	=34	=34	=34	=34	=34
1II	A:maj	90.501	.	voice	1A 1cc# 1ee
=35	=35	=35	=35	=35	=35
1V	D:maj	93.065	.	voice	1D 1f# 1a
=36	=36	=36	=36	=36	=36
1V	D:maj	95.629	.	voice	1D 1f# 1a
=37	=37	=37	=37	=37	=37
1v	D:min	98.193	newline	voice	1D 1f 1a
=38	=38	=38	=38	=38	=38
2I	G:maj	100.784	.	voice	2G 2b 2dd
2Im7	G:7	102.079	.	voice	2G 2b 2dd 2ff#
=39	=39	=39	=39	=39	=39
1IV	C:maj	103.375	.	voice	1C 1e 1g
=40	=40	=40	=40	=40	=40
1iv	C:min	105.966	.	voice	1C 1e- 1g
=41	=41	=41	=41	=41	=41
1I	G:maj	108.557	newline	voice	1G 1b 1dd
=42	=42	=42	=42	=42	=42
1I	G:maj	111.142	.	voice	1G 1b 1dd
=43	=43	=43	=43	=43	=43
2I	G:maj	113.727	.	voice	2G 2b 2dd
2-VII	F:maj	115.019	.	voice	2F 2a 2cc
=44	=44	=44	=44	=44	=44
2.VI	E:maj	116.311	.	voice	2E 2g# 2b
4VI7	E:7	118.25	.	voice	4E 4g# 4b 4dd
=45	=45	=45	=45	=45	=45
1ii	A:min	118.896	newline	voice	1A 1cc 1ee
=46	=46	=46	=46	=46	=46
1V	D:maj	121.471	.	voice	1D 1f# 1a
=47	=47	=47	=47	=47	=47
1I	G:maj	124.045	.	voice	1G 1b 1dd
=48	=48	=48	=48	=48	=48
1I	G:maj	126.619	.	voice	1G 1b 1dd
=49	=49	=49	=49	=49	=49
1I	G:maj	129.193	newline	strings	1G 1b 1dd
=50	=50	=50	=50	=50	=50
1I	G:maj	131.77	.	strings	1G 1b 1dd
=51	=51	=51	=51	=51	=51
2I	G:maj	134.346	.	strings	2G 2b 2dd
2-VII	F:maj	135.635	.	strings	2F 2a 2cc
=52	=52	=52	=52	=52	=52
1VI	E:maj	136.923	.	strings	1E 1g# 1b
=53	=53	=53	=53	=53	=53
1II	A:maj	139.499	newline	strings	1A 1cc# 1ee
=54	=54	=54	=54	=54	=54
1V	D:maj	142.071	.	strings	1D 1f# 1a
=55	=55	=55	=55	=55	=55
1I	G:maj	144.642	.	strings	1G 1b 1dd
=56	=56	=56	=56	=56	=56
1I	G:maj	147.214	.	strings	1G 1b 1dd
=57	=57	=57	=57	=57	=57
*>C_chorus	*>C_chorus	*>C_chorus	*>C_chorus	*>C_chorus	*>C_chorus
1vi	E:min	149.785	newline	voice	1E 1g 1b
=58	=58	=58	=58	=58	=58
1II	A:maj	152.37	.	voice	1A 1cc# 1ee
=59	=59	=59	=59	=59	=59
1V	D:maj	154.956	.	voice	1D 1f# 1a
=60	=60	=60	=60	=60	=60
1V	D:maj	157.541	.	voice	1D 1f# 1a
=61	=61	=61	=61	=61	=61
1v	D:min	160.126	newline	voice	1D 1f 1a
=62	=62	=62	=62	=62	=62
2I	G:maj	162.443	.	voice	2G 2b 2dd
2Im7	G:7	163.602	.	voice	2G 2b 2dd 2ff#
=63	=63	=63	=63	=63	=63
1IV	C:maj	164.76	.	voice	1C 1e 1g
=64	=64	=64	=64	=64	=64
1iv	C:min	167.077	.	voice	1C 1e- 1g
1r;	N	169.394	.	r	1r;
=65	=65	=65	=65	=65	=65
1I	G:maj	171.712	newline	r	1G 1b 1dd
=66	=66	=66	=66	=66	=66
1I	G:maj	174.302	.	r	1G 1b 1dd
=67	=67	=67	=67	=67	=67
2I	G:maj	176.893	.	r	2G 2b 2dd
2-VII	F:maj	178.189	.	r	2F 2a 2cc
=68	=68	=68	=68	=68	=68
2.VI	E:maj	179.484	.	r	2E 2g# 2b
4VI7	E:7	181.427	.	r	4E 4g# 4b 4dd
=69	=69	=69	=69	=69	=69
1ii	A:min	182.075	newline	voice	1A 1cc 1ee
=70	=70	=70	=70	=70	=70
1V	D:maj	184.618	.	voice	1D 1f# 1a
=71	=71	=71	=71	=71	=71
2I	G:maj	187.162	newline	strings	2G 2b 2dd
2-VII	F:maj	188.459	.	strings	2F 2a 2cc
=72	=72	=72	=72	=72	=72
2.VI	E:maj	189.757	.	strings	2E 2g# 2b
4VI7	E:7	191.704	.	strings	4E 4g# 4b 4dd
=73	=73	=73	=73	=73	=73
1ii	A:min	192.353	newline	voice	1A 1cc 1ee
=74	=74	=74	=74	=74	=74
1V	D:maj	194.49	.	voice	1D 1f# 1a
1r;	N	196.626	.	r	1r;
=75	=75	=75	=75	=75	=75
1I	G:maj	198.763	newline	voice	1G 1b 1dd
=76	=76	=76	=76	=76	=76
1I	G:maj	200.906	.	voice	1G 1b 1dd
=77	=77	=77	=77	=77	=77
1I	G:maj	203.05	.	voice	1G 1b 1dd
=78	=78	=78	=78	=78	=78
1I	G:maj	205.194	.	voice	1G 1b 1dd
1r;	N	212.161	.	r	1r;
1r;	N	214.857	.	r	1r;
*-	*-	*-	*-	*-	*-
!!!OTL: Secret Love
!!!COC: Freddy Fender
!!!BillboardChartDate: 1975/11/22
!!!BillboardPeak: 20
!!!BillboardWeeksOnChart: 11
!!!SampleTargetRank: 28
!!!SampleActualRank: 28
!!!SampleID#: 0872
!!!RDF**harmony: **recip + pitch class of root + harmonic quality
!!!RDF**harte: Chris Harte's syntax, used by MIREX
!!!RDF**phrase: newline = linebreak in original McGill transcription
!!!RDF**timestamp: McGill audio timestamp in seconds
!!!RDF**leadinstrument: original McGill primary instrumentation annotation
!!!RDT: 2017/01/12/
!!!ENC: Nathaniel Condit-Schultz
!!!EST: Awating manual error checking and editing.
